X: 1
T: Polly Put the Kettle On
O: Dan Gellert [Waitin' on the Break of Day]
R: reel
Z: 2020 John Chambers <jc:trillian.mit.edu> 2020-7-18
S: https://www.facebook.com/groups/Fiddletuneoftheday/
S: https://www.facebook.com/groups/Fiddletuneoftheday/photos/
M: C|
L: 1/8
K: Gdor
|:\
Bcd(B cA)GG | (FD)CD B,3(C | D)(FGA) GF(GA) | B(dcA) B2FF ||\
Bcd(B cB)GG | (FD)CD B,3(C | D)(FGA) (GF)DC | DG2D [1 G2F2 :|[2 G4 ||
|:\
GABc dde2 | f2 (3fge  f2cc | dg2(a g)^fd(f | ga)g^f d3(e ||\
fg)va(f ge)vdd | cAG(E FD)(vFG- | G)(AGF) DFCF | (DG2)(D G4) :|
